static/app-dev/java.svg

<svg width="1265" height="1715" fill="none" xmlns="http://www.w3.org/2000/svg"><path d="M407.354 1326.12s-65.52 38.1 46.629 51c135.865 15.5 205.304 13.27 355.029-15.06 0 0 39.364 24.68 94.338 46.06-335.643 143.85-759.626-8.34-495.996-82Zm-41.014-187.71s-73.487 54.39 38.745 66c145.136 14.97 259.752 16.2 458.083-21.99 0 0 27.437 27.81 70.572 43.02-405.817 118.66-857.82 9.36-567.4-87.03" fill="#5382A1"/><path d="M712.099 819.977c82.702 95.216-21.725 180.903-21.725 180.903s209.986-108.405 113.55-244.155C713.85 630.126 644.776 567.23 1018.72 350.358c0-.004-586.966 146.592-306.621 469.619" fill="#E76F00"/><path d="M1156.01 1464.97s48.49 39.95-53.4 70.86c-193.733 58.69-806.352 76.41-976.535 2.34-61.176-26.62 53.547-63.55 89.635-71.3 37.635-8.16 59.143-6.64 59.143-6.64-68.035-47.93-439.747 94.1-188.812 134.78 684.337 110.98 1247.489-49.97 1069.969-130.04ZM438.862 943.91s-311.617 74.01-110.352 100.89c84.981 11.38 254.387 8.81 412.181-4.42 128.961-10.87 258.458-34 258.458-34s-45.473 19.47-78.372 41.93c-316.442 83.23-927.748 44.51-751.761-40.62 148.833-71.941 269.846-63.78 269.846-63.78Zm559.003 312.46C1319.54 1089.22 1170.82 928.577 1067 950.223c-25.45 5.296-36.79 9.885-36.79 9.885s9.45-14.798 27.48-21.203c205.38-72.202 363.32 212.955-66.295 325.895 0 0 4.986-4.44 6.47-8.43Z" fill="#5382A1"/><path d="M803.924.163S982.074 178.37 634.956 452.41c-278.353 219.82-63.473 345.158-.115 488.367-162.475-146.601-281.713-275.645-201.719-395.752C550.53 368.719 875.803 283.239 803.924.163" fill="#E76F00"/><path d="M470.471 1709.33c308.77 19.76 782.919-10.97 794.149-157.07 0 0-21.58 55.38-255.18 99.37-263.541 49.6-588.588 43.81-781.373 12.02.009 0 39.47 32.66 242.404 45.68" fill="#5382A1"/></svg>

<svg width="1265" height="1715" viewBox="0 0 1265 1715" fill="none"
  xmlns="http://www.w3.org/2000/svg">
  <path d="M407.354 1326.12C407.354 1326.12 341.834 1364.22 453.983 1377.12C589.848 1392.62 659.287 1390.39 809.012 1362.06C809.012 1362.06 848.376 1386.74 903.35 1408.12C567.707 1551.97 143.724 1399.78 407.354 1326.12ZM366.34 1138.41C366.34 1138.41 292.853 1192.8 405.085 1204.41C550.221 1219.38 664.837 1220.61 863.168 1182.42C863.168 1182.42 890.605 1210.23 933.74 1225.44C527.923 1344.1 75.9209 1234.8 366.34 1138.41" fill="#5382A1"/>
  <path d="M712.099 819.977C794.801 915.193 690.374 1000.88 690.374 1000.88C690.374 1000.88 900.36 892.475 803.924 756.725C713.85 630.126 644.776 567.23 1018.72 350.358C1018.72 350.354 431.754 496.95 712.099 819.977" fill="#E76F00"/>
  <path d="M1156.01 1464.97C1156.01 1464.97 1204.5 1504.92 1102.61 1535.83C908.877 1594.52 296.258 1612.24 126.075 1538.17C64.8989 1511.55 179.622 1474.62 215.71 1466.87C253.345 1458.71 274.853 1460.23 274.853 1460.23C206.818 1412.3 -164.894 1554.33 86.0413 1595.01C770.378 1705.99 1333.53 1545.04 1156.01 1464.97V1464.97ZM438.862 943.91C438.862 943.91 127.245 1017.92 328.51 1044.8C413.491 1056.18 582.897 1053.61 740.691 1040.38C869.652 1029.51 999.149 1006.38 999.149 1006.38C999.149 1006.38 953.676 1025.85 920.777 1048.31C604.335 1131.54 -6.97108 1092.82 169.016 1007.69C317.849 935.749 438.862 943.91 438.862 943.91V943.91ZM997.865 1256.37C1319.54 1089.22 1170.82 928.577 1067 950.223C1041.55 955.519 1030.21 960.108 1030.21 960.108C1030.21 960.108 1039.66 945.31 1057.69 938.905C1263.07 866.703 1421.01 1151.86 991.395 1264.8C991.395 1264.8 996.381 1260.36 997.865 1256.37Z" fill="#5382A1"/>
  <path d="M803.924 0.163086C803.924 0.163086 982.074 178.369 634.956 452.41C356.603 672.23 571.483 797.568 634.841 940.777C472.366 794.176 353.128 665.132 433.122 545.025C550.53 368.719 875.803 283.239 803.924 0.163086" fill="#E76F00"/>
  <path d="M470.471 1709.33C779.241 1729.09 1253.39 1698.36 1264.62 1552.26C1264.62 1552.26 1243.04 1607.64 1009.44 1651.63C745.899 1701.23 420.852 1695.44 228.067 1663.65C228.076 1663.65 267.537 1696.31 470.471 1709.33" fill="#5382A1"/>
</svg>
